X: 57
T: Vals
B:[[Notböcker/Melodier til gamle danske Almuedanse for Violin solo]]
O:Danmark
Z:Søren Bak Vestergaard
M: 3/4
L: 1/4
K: G
G B d|g B g|f A/B/c/B/|A2 A/G/|F A d|f A f|f/e/d/c/B/A/|\
B2 D|G B d|g B g|f A/B/c/B/|A2 !upbow!f|a a/f/ d|b b/g/ d|\
f/e/d/c/B/A/|1 G2 z:|2 G z|:(B/d/)|c B c|A d (f/a/)|g2 b|\
d g g|f2 a|d f a|g (g/f/) g|d B G|c B c|A d (f/a/)|\
g2 b|d g g|f2 a|d f a|g> g g|1 g z:|2 g z z|]

